static/img/kroki/0424ccff7f9d1a2583890879113c040d.svg

<?xml version="1.0" encoding="us-ascii" standalone="no"?><svg xmlns="http://www.w3.org/2000/svg" xmlns:xlink="http://www.w3.org/1999/xlink" contentStyleType="text/css" height="767px" preserveAspectRatio="none" style="width:384px;height:767px;" version="1.1" viewBox="0 0 384 767" width="384px" zoomAndPan="magnify"><defs/><g><!--class digitalocean_resource--><g id="elem_digitalocean_resource"><rect codeLine="22" fill="#3D176E" height="74.0859" id="digitalocean_resource" rx="2.5" ry="2.5" style="stroke:#000D19;stroke-width:0.5;" width="223" x="7" y="438.75"/><ellipse cx="22" cy="458.6445" fill="#ADD1B2" rx="11" ry="11" style="stroke:#181818;stroke-width:1.0;"/><path d="M24.9688,464.2852 Q24.3906,464.582 23.75,464.7227 Q23.1094,464.8789 22.4063,464.8789 Q19.9063,464.8789 18.5781,463.2383 Q17.2656,461.582 17.2656,458.457 Q17.2656,455.332 18.5781,453.6758 Q19.9063,452.0195 22.4063,452.0195 Q23.1094,452.0195 23.75,452.1758 Q24.4063,452.332 24.9688,452.6289 L24.9688,455.3477 Q24.3438,454.7695 23.75,454.5039 Q23.1563,454.2227 22.5313,454.2227 Q21.1875,454.2227 20.5,455.3008 Q19.8125,456.3633 19.8125,458.457 Q19.8125,460.5508 20.5,461.6289 Q21.1875,462.6914 22.5313,462.6914 Q23.1563,462.6914 23.75,462.4258 Q24.3438,462.1445 24.9688,461.5664 L24.9688,464.2852 Z " fill="#000000"/><text fill="#D9B8FF" font-family="Helvetica" font-size="17" lengthAdjust="spacing" textLength="181" x="41" y="464.5298">digitalocean_resource</text><line style="stroke:#000D19;stroke-width:0.5;" x1="8" x2="229" y1="478.5391" y2="478.5391"/><text fill="#D9B8FF" font-family="sans-serif" font-size="14" font-weight="bold" lengthAdjust="spacing" textLength="27" x="18" y="500.5342">urn</text><text fill="#D9B8FF" font-family="sans-serif" font-size="14" lengthAdjust="spacing" textLength="48" x="45" y="500.5342">: string</text></g><!--class digitalocean_vpc--><g id="elem_digitalocean_vpc"><rect codeLine="25" fill="#3D176E" height="126.6797" id="digitalocean_vpc" rx="2.5" ry="2.5" style="stroke:#000D19;stroke-width:0.5;" width="180" x="129.5" y="633.84"/><ellipse cx="144.5" cy="653.7345" fill="#ADD1B2" rx="11" ry="11" style="stroke:#181818;stroke-width:1.0;"/><path d="M147.4688,659.3752 Q146.8906,659.672 146.25,659.8127 Q145.6094,659.9689 144.9063,659.9689 Q142.4063,659.9689 141.0781,658.3283 Q139.7656,656.672 139.7656,653.547 Q139.7656,650.422 141.0781,648.7658 Q142.4063,647.1095 144.9063,647.1095 Q145.6094,647.1095 146.25,647.2658 Q146.9063,647.422 147.4688,647.7189 L147.4688,650.4377 Q146.8438,649.8595 146.25,649.5939 Q145.6563,649.3127 145.0313,649.3127 Q143.6875,649.3127 143,650.3908 Q142.3125,651.4533 142.3125,653.547 Q142.3125,655.6408 143,656.7189 Q143.6875,657.7814 145.0313,657.7814 Q145.6563,657.7814 146.25,657.5158 Q146.8438,657.2345 147.4688,656.6564 L147.4688,659.3752 Z " fill="#000000"/><text fill="#D9B8FF" font-family="Helvetica" font-size="17" lengthAdjust="spacing" textLength="138" x="163.5" y="659.6198">digitalocean_vpc</text><line style="stroke:#000D19;stroke-width:0.5;" x1="130.5" x2="308.5" y1="673.6291" y2="673.6291"/><text fill="#D9B8FF" font-family="sans-serif" font-size="14" font-weight="bold" lengthAdjust="spacing" textLength="89" x="140.5" y="695.6242">description</text><text fill="#D9B8FF" font-family="sans-serif" font-size="14" lengthAdjust="spacing" textLength="48" x="229.5" y="695.6242">: string</text><text fill="#D9B8FF" font-family="sans-serif" font-size="14" font-weight="bold" lengthAdjust="spacing" textLength="67" x="140.5" y="721.9211">ip_range</text><text fill="#D9B8FF" font-family="sans-serif" font-size="14" lengthAdjust="spacing" textLength="48" x="207.5" y="721.9211">: string</text><text fill="#D9B8FF" font-family="sans-serif" font-size="14" font-weight="bold" lengthAdjust="spacing" textLength="75" x="140.5" y="748.2179">is_default</text><text fill="#D9B8FF" font-family="sans-serif" font-size="14" lengthAdjust="spacing" textLength="65" x="215.5" y="748.2179">: boolean</text></g><!--class network--><g id="elem_network"><rect codeLine="30" fill="#3D176E" height="39.7891" id="network" rx="2.5" ry="2.5" style="stroke:#000D19;stroke-width:0.5;" width="112" x="265.5" y="455.9"/><ellipse cx="280.5" cy="475.7945" fill="#ADD1B2" rx="11" ry="11" style="stroke:#181818;stroke-width:1.0;"/><path d="M283.4688,481.4352 Q282.8906,481.732 282.25,481.8727 Q281.6094,482.0289 280.9063,482.0289 Q278.4063,482.0289 277.0781,480.3883 Q275.7656,478.732 275.7656,475.607 Q275.7656,472.482 277.0781,470.8258 Q278.4063,469.1695 280.9063,469.1695 Q281.6094,469.1695 282.25,469.3258 Q282.9063,469.482 283.4688,469.7789 L283.4688,472.4977 Q282.8438,471.9195 282.25,471.6539 Q281.6563,471.3727 281.0313,471.3727 Q279.6875,471.3727 279,472.4508 Q278.3125,473.5133 278.3125,475.607 Q278.3125,477.7008 279,478.7789 Q279.6875,479.8414 281.0313,479.8414 Q281.6563,479.8414 282.25,479.5758 Q282.8438,479.2945 283.4688,478.7164 L283.4688,481.4352 Z " fill="#000000"/><text fill="#D9B8FF" font-family="Helvetica" font-size="17" lengthAdjust="spacing" textLength="70" x="299.5" y="481.6798">network</text></g><!--class resource--><g id="elem_resource"><rect codeLine="32" fill="#3D176E" height="310.7578" id="resource" rx="2.5" ry="2.5" style="stroke:#000D19;stroke-width:0.5;" width="227" x="106" y="7"/><ellipse cx="174.75" cy="26.8945" fill="#ADD1B2" rx="11" ry="11" style="stroke:#181818;stroke-width:1.0;"/><path d="M177.7188,32.5352 Q177.1406,32.832 176.5,32.9727 Q175.8594,33.1289 175.1563,33.1289 Q172.6563,33.1289 171.3281,31.4883 Q170.0156,29.832 170.0156,26.707 Q170.0156,23.582 171.3281,21.9258 Q172.6563,20.2695 175.1563,20.2695 Q175.8594,20.2695 176.5,20.4258 Q177.1563,20.582 177.7188,20.8789 L177.7188,23.5977 Q177.0938,23.0195 176.5,22.7539 Q175.9063,22.4727 175.2813,22.4727 Q173.9375,22.4727 173.25,23.5508 Q172.5625,24.6133 172.5625,26.707 Q172.5625,28.8008 173.25,29.8789 Q173.9375,30.9414 175.2813,30.9414 Q175.9063,30.9414 176.5,30.6758 Q177.0938,30.3945 177.7188,29.8164 L177.7188,32.5352 Z " fill="#000000"/><text fill="#D9B8FF" font-family="Helvetica" font-size="17" lengthAdjust="spacing" textLength="71" x="200.25" y="32.7798">resource</text><line style="stroke:#000D19;stroke-width:0.5;" x1="107" x2="332" y1="46.7891" y2="46.7891"/><text fill="#D9B8FF" font-family="sans-serif" font-size="14" font-weight="bold" lengthAdjust="spacing" textLength="29" x="117" y="68.7842">age</text><text fill="#D9B8FF" font-family="sans-serif" font-size="14" lengthAdjust="spacing" textLength="66" x="146" y="68.7842">: duration</text><text fill="#D9B8FF" font-family="sans-serif" font-size="14" font-weight="bold" lengthAdjust="spacing" textLength="43" x="117" y="95.0811">atime</text><text fill="#D9B8FF" font-family="sans-serif" font-size="14" lengthAdjust="spacing" textLength="70" x="160" y="95.0811">: datetime</text><text fill="#D9B8FF" font-family="sans-serif" font-size="14" font-weight="bold" lengthAdjust="spacing" textLength="43" x="117" y="121.3779">ctime</text><text fill="#D9B8FF" font-family="sans-serif" font-size="14" lengthAdjust="spacing" textLength="70" x="160" y="121.3779">: datetime</text><text fill="#D9B8FF" font-family="sans-serif" font-size="14" font-weight="bold" lengthAdjust="spacing" textLength="14" x="117" y="147.6748">id</text><text fill="#D9B8FF" font-family="sans-serif" font-size="14" lengthAdjust="spacing" textLength="48" x="131" y="147.6748">: string</text><text fill="#D9B8FF" font-family="sans-serif" font-size="14" font-weight="bold" lengthAdjust="spacing" textLength="33" x="117" y="173.9717">kind</text><text fill="#D9B8FF" font-family="sans-serif" font-size="14" lengthAdjust="spacing" textLength="48" x="150" y="173.9717">: string</text><text fill="#D9B8FF" font-family="sans-serif" font-size="14" font-weight="bold" lengthAdjust="spacing" textLength="90" x="117" y="200.2686">last_access</text><text fill="#D9B8FF" font-family="sans-serif" font-size="14" lengthAdjust="spacing" textLength="66" x="207" y="200.2686">: duration</text><text fill="#D9B8FF" font-family="sans-serif" font-size="14" font-weight="bold" lengthAdjust="spacing" textLength="90" x="117" y="226.5654">last_update</text><text fill="#D9B8FF" font-family="sans-serif" font-size="14" lengthAdjust="spacing" textLength="66" x="207" y="226.5654">: duration</text><text fill="#D9B8FF" font-family="sans-serif" font-size="14" font-weight="bold" lengthAdjust="spacing" textLength="48" x="117" y="252.8623">mtime</text><text fill="#D9B8FF" font-family="sans-serif" font-size="14" lengthAdjust="spacing" textLength="70" x="165" y="252.8623">: datetime</text><text fill="#D9B8FF" font-family="sans-serif" font-size="14" font-weight="bold" lengthAdjust="spacing" textLength="43" x="117" y="279.1592">name</text><text fill="#D9B8FF" font-family="sans-serif" font-size="14" lengthAdjust="spacing" textLength="48" x="160" y="279.1592">: string</text><text fill="#D9B8FF" font-family="sans-serif" font-size="14" font-weight="bold" lengthAdjust="spacing" textLength="34" x="117" y="305.4561">tags</text><text fill="#D9B8FF" font-family="sans-serif" font-size="14" lengthAdjust="spacing" textLength="171" x="151" y="305.4561">: dictionary[string, string]</text></g><!--reverse link resource to digitalocean_resource--><g id="link_resource_digitalocean_resource"><path codeLine="44" d="M162.89,337.92 C150.51,376.11 138.62,412.76 130.27,438.51 " fill="none" id="resource-backto-digitalocean_resource" style="stroke:#FFAF37;stroke-width:2.0;"/><polygon fill="none" points="156.47,336.04,169.3,319.17,169.78,340.36,156.47,336.04" style="stroke:#FFAF37;stroke-width:2.0;"/></g><!--reverse link digitalocean_resource to digitalocean_vpc--><g id="link_digitalocean_resource_digitalocean_vpc"><path codeLine="45" d="M143.95,532.09 C158.19,563.01 175.99,601.67 190.73,633.69 " fill="none" id="digitalocean_resource-backto-digitalocean_vpc" style="stroke:#FFAF37;stroke-width:2.0;"/><polygon fill="none" points="137.18,535.12,135.18,514.02,149.9,529.26,137.18,535.12" style="stroke:#FFAF37;stroke-width:2.0;"/></g><!--reverse link network to digitalocean_vpc--><g id="link_network_digitalocean_vpc"><path codeLine="46" d="M303.78,514.91 C288.61,547.53 266.47,595.15 248.69,633.4 " fill="none" id="network-backto-digitalocean_vpc" style="stroke:#FFAF37;stroke-width:2.0;"/><polygon fill="none" points="297.85,512.07,312.63,496.88,310.54,517.97,297.85,512.07" style="stroke:#FFAF37;stroke-width:2.0;"/></g><!--reverse link resource to network--><g id="link_resource_network"><path codeLine="47" d="M276.69,337.99 C292.32,385.7 307.16,431.02 315.23,455.64 " fill="none" id="resource-backto-network" style="stroke:#FFAF37;stroke-width:2.0;"/><polygon fill="none" points="269.77,340.36,270.2,319.17,283.08,336,269.77,340.36" style="stroke:#FFAF37;stroke-width:2.0;"/></g><!--SRC=[XPDDIyD048Rl-HKBteA5Lj5QyQ85qOk8UXCfqzr9kZJP3RCJI_tux-usRSbNxQsyyymxxyoc2wrGO5xmMkIOpv5Sv9RQ542GYriYkvhQp98uIH98piVjuhqrV1HuWXp50sQVo5f2ctXRQBaqw9mugvNkG2vJigLHbJqJ6ETBQBX6JJDmxfQPzBnah8LHa_bLahJ9jkd9kHgDBx63ML98MsGu7AhHf8qS7VNltdlYLN-X6DMFzcGPEp4x8pRKloa3KGlPMNHNFvZn6PJI9XKNDUsboaG6gQ6_Ba3PLQ0Jo5nzZ6CajBmkSDhP2YTNAXdtme-7O1ak9vHEDKDc9OAP4JfRaaJn7SLnIIQEhxqJ-JJHRn__MSWDgj19qWLhMs-9OrtC_BUMObDqCuK9b1a7UMvjvgts_WPvPMdfRNTA8nHKPgea2DE2mZglD60ClxqcUpIj6YdyfPg2dyKpaDB_UreJDfMo25wjIjupnq3Ut9SXhHor36r0w_UgThfbFlog-oLlVWQ3GV-hHFrlrTFXtoNQ7V90kTM-fVy0]--></g></svg>

<svg xmlns="http://www.w3.org/2000/svg" width="384" height="767" preserveAspectRatio="none" style="width:384px;height:767px"><rect width="223" height="74.086" x="7" y="438.75" fill="#3D176E" rx="2.5" ry="2.5" style="stroke:#000d19;stroke-width:.5"/><circle cx="22" cy="458.644" r="11" fill="#ADD1B2" style="stroke:#181818;stroke-width:1"/><path d="M24.969 464.285q-.578.297-1.219.438-.64.156-1.344.156-2.5 0-3.828-1.64-1.312-1.657-1.312-4.782t1.312-4.781q1.328-1.656 3.828-1.656.703 0 1.344.156.656.156 1.219.453v2.719q-.625-.579-1.219-.844-.594-.281-1.219-.281-1.343 0-2.031 1.078-.688 1.062-.688 3.156 0 2.094.688 3.172.688 1.062 2.031 1.062.625 0 1.219-.265.594-.281 1.219-.86v2.72Z"/><text x="41" y="464.53" fill="#D9B8FF" font-family="Helvetica" font-size="17" textLength="181">digitalocean_resource</text><path d="M8 478.539h221" style="stroke:#000d19;stroke-width:.5"/><text x="18" y="500.534" fill="#D9B8FF" font-family="sans-serif" font-size="14" font-weight="bold" textLength="27">urn</text><text x="45" y="500.534" fill="#D9B8FF" font-family="sans-serif" font-size="14" textLength="48">: string</text><rect width="180" height="126.68" x="129.5" y="633.84" fill="#3D176E" rx="2.5" ry="2.5" style="stroke:#000d19;stroke-width:.5"/><circle cx="144.5" cy="653.735" r="11" fill="#ADD1B2" style="stroke:#181818;stroke-width:1"/><path d="M147.469 659.375q-.578.297-1.219.438-.64.156-1.344.156-2.5 0-3.828-1.64-1.312-1.657-1.312-4.782t1.312-4.781q1.328-1.656 3.828-1.656.703 0 1.344.156.656.156 1.219.453v2.719q-.625-.578-1.219-.844-.594-.281-1.219-.281-1.344 0-2.031 1.078-.688 1.062-.688 3.156 0 2.094.688 3.172.688 1.062 2.031 1.062.625 0 1.219-.265.594-.281 1.219-.86v2.72Z"/><text x="163.5" y="659.62" fill="#D9B8FF" font-family="Helvetica" font-size="17" textLength="138">digitalocean_vpc</text><path d="M130.5 673.629h178" style="stroke:#000d19;stroke-width:.5"/><text x="140.5" y="695.624" fill="#D9B8FF" font-family="sans-serif" font-size="14" font-weight="bold" textLength="89">description</text><text x="229.5" y="695.624" fill="#D9B8FF" font-family="sans-serif" font-size="14" textLength="48">: string</text><text x="140.5" y="721.921" fill="#D9B8FF" font-family="sans-serif" font-size="14" font-weight="bold" textLength="67">ip_range</text><text x="207.5" y="721.921" fill="#D9B8FF" font-family="sans-serif" font-size="14" textLength="48">: string</text><text x="140.5" y="748.218" fill="#D9B8FF" font-family="sans-serif" font-size="14" font-weight="bold" textLength="75">is_default</text><text x="215.5" y="748.218" fill="#D9B8FF" font-family="sans-serif" font-size="14" textLength="65">: boolean</text><rect width="112" height="39.789" x="265.5" y="455.9" fill="#3D176E" rx="2.5" ry="2.5" style="stroke:#000d19;stroke-width:.5"/><circle cx="280.5" cy="475.795" r="11" fill="#ADD1B2" style="stroke:#181818;stroke-width:1"/><path d="M283.469 481.435q-.578.297-1.219.438-.64.156-1.344.156-2.5 0-3.828-1.64-1.312-1.657-1.312-4.782t1.312-4.781q1.328-1.656 3.828-1.656.703 0 1.344.156.656.156 1.219.453v2.719q-.625-.578-1.219-.844-.594-.281-1.219-.281-1.344 0-2.031 1.078-.688 1.062-.688 3.156 0 2.094.688 3.172.688 1.062 2.031 1.062.625 0 1.219-.265.594-.281 1.219-.86v2.72Z"/><text x="299.5" y="481.68" fill="#D9B8FF" font-family="Helvetica" font-size="17" textLength="70">network</text><rect width="227" height="310.758" x="106" y="7" fill="#3D176E" rx="2.5" ry="2.5" style="stroke:#000d19;stroke-width:.5"/><circle cx="174.75" cy="26.895" r="11" fill="#ADD1B2" style="stroke:#181818;stroke-width:1"/><path d="M177.719 32.535q-.578.297-1.219.438-.64.156-1.344.156-2.5 0-3.828-1.64-1.312-1.657-1.312-4.782t1.312-4.781q1.328-1.656 3.828-1.656.703 0 1.344.156.656.156 1.219.453v2.719q-.625-.578-1.219-.844-.594-.281-1.219-.281-1.344 0-2.031 1.078-.688 1.062-.688 3.156 0 2.094.688 3.172.688 1.062 2.031 1.062.625 0 1.219-.265.594-.281 1.219-.86v2.72Z"/><text x="200.25" y="32.78" fill="#D9B8FF" font-family="Helvetica" font-size="17" textLength="71">resource</text><path d="M107 46.789h225" style="stroke:#000d19;stroke-width:.5"/><text x="117" y="68.784" fill="#D9B8FF" font-family="sans-serif" font-size="14" font-weight="bold" textLength="29">age</text><text x="146" y="68.784" fill="#D9B8FF" font-family="sans-serif" font-size="14" textLength="66">: duration</text><text x="117" y="95.081" fill="#D9B8FF" font-family="sans-serif" font-size="14" font-weight="bold" textLength="43">atime</text><text x="160" y="95.081" fill="#D9B8FF" font-family="sans-serif" font-size="14" textLength="70">: datetime</text><text x="117" y="121.378" fill="#D9B8FF" font-family="sans-serif" font-size="14" font-weight="bold" textLength="43">ctime</text><text x="160" y="121.378" fill="#D9B8FF" font-family="sans-serif" font-size="14" textLength="70">: datetime</text><text x="117" y="147.675" fill="#D9B8FF" font-family="sans-serif" font-size="14" font-weight="bold" textLength="14">id</text><text x="131" y="147.675" fill="#D9B8FF" font-family="sans-serif" font-size="14" textLength="48">: string</text><text x="117" y="173.972" fill="#D9B8FF" font-family="sans-serif" font-size="14" font-weight="bold" textLength="33">kind</text><text x="150" y="173.972" fill="#D9B8FF" font-family="sans-serif" font-size="14" textLength="48">: string</text><text x="117" y="200.269" fill="#D9B8FF" font-family="sans-serif" font-size="14" font-weight="bold" textLength="90">last_access</text><text x="207" y="200.269" fill="#D9B8FF" font-family="sans-serif" font-size="14" textLength="66">: duration</text><text x="117" y="226.565" fill="#D9B8FF" font-family="sans-serif" font-size="14" font-weight="bold" textLength="90">last_update</text><text x="207" y="226.565" fill="#D9B8FF" font-family="sans-serif" font-size="14" textLength="66">: duration</text><text x="117" y="252.862" fill="#D9B8FF" font-family="sans-serif" font-size="14" font-weight="bold" textLength="48">mtime</text><text x="165" y="252.862" fill="#D9B8FF" font-family="sans-serif" font-size="14" textLength="70">: datetime</text><text x="117" y="279.159" fill="#D9B8FF" font-family="sans-serif" font-size="14" font-weight="bold" textLength="43">name</text><text x="160" y="279.159" fill="#D9B8FF" font-family="sans-serif" font-size="14" textLength="48">: string</text><text x="117" y="305.456" fill="#D9B8FF" font-family="sans-serif" font-size="14" font-weight="bold" textLength="34">tags</text><text x="151" y="305.456" fill="#D9B8FF" font-family="sans-serif" font-size="14" textLength="171">: dictionary[string, string]</text><g fill="none"><path d="M162.89 337.92c-12.38 38.19-24.27 74.84-32.62 100.59" style="stroke:#ffaf37;stroke-width:2"/><path d="m156.47 336.04 12.83-16.87.48 21.19-13.31-4.32z" style="stroke:#ffaf37;stroke-width:2"/></g><path fill="none" d="M143.95 532.09c14.24 30.92 32.04 69.58 46.78 101.6m-53.55-98.57-2-21.1 14.72 15.24-12.72 5.86zm166.6-20.21c-15.17 32.62-37.31 80.24-55.09 118.49m49.16-121.33 14.78-15.19-2.09 21.09-12.69-5.9z" style="stroke:#ffaf37;stroke-width:2"/><g fill="none"><path d="M276.69 337.99c15.63 47.71 30.47 93.03 38.54 117.65" style="stroke:#ffaf37;stroke-width:2"/><path d="m269.77 340.36.43-21.19L283.08 336l-13.31 4.36z" style="stroke:#ffaf37;stroke-width:2"/></g></svg>
